X: 246
T:Lord Gordon's Reel
R:reel
H:Originally Scottish
D:Kevin Burke: Up Close
Z:id:hn-reel-203
M:C|
K:D
ADFD A,DFB|ADFD FAdc|BE~E2 cE~E2|BE~E2 BAFA|
dcdf ecdB|AFdF A2Bc|cBBA BFAF|1 EFGA BcdB:|2 EFGA Bcde||
|:f2df afdf|afdf a2gf|efga bgec|dcBA ^GABc|
df~f2 ecdB|AFdF A2Bc|cBBA BFAF|EFGA Bcde:|
|:fa~a2 fdad|fa~a2 fdad|gb~b2 gebe|gb~b2 gebe|
fgfe dcdA|BAGB ABdf|afec dBAF|1 EFGA Bcde:|2 EFGA BcdB||
|:Addc defd|Addc defd|eggf ~g3f|eggf gage|
fgfe dcdB|BAGB ABdf|afec dBAF|1 EFGA BcdB:|2 EFGA Bcde||
|:faa^g afde|faa^g a2=gf|gbef gbef|gbeg bgef|
g2bg fgaf|fedB ABdf|afec dBAF|1 EFGA Bcde:|2 EFGA BcdB||
"Variations:"
|:ADFD A,DFB|ADFD FAdc|BE~E2 cE~E2|BE~E2 BAFA|
~d3f ecdB|AFDF A2Bc|dBcA BGAF|1 EFGA BcdB:|2 EFGA Bcde||
|:f2df afdf|f2df afdf|efga bgec|dcBA FABc|
d2fd ecdB|AFDF A2Bc|dBcA BGAF|EFGA Bcde:|
|:fa~a2 fdad|fa~a2 fdad|gb~b2 gebe|gb~b2 gebe|
~f3e dedB|BA^GB ABdf|afec dBAF|1 EFGA Bcde:|2 EFGA BcdB||
Ad~d2 defd|Ad~d2 defd|eggf ~g3f|eggf gage|
fgfe dcdB|BA^GB ABdf|afec dBAF|EFGA BcdB|
Adcd fdcd|Adcd fdcd|egfg bg~g2|egfg bgeg|
fgfe dcdB|BA^GB ABdf|afec dBAF|EFGA Bcde||
|:fa~a2 afde|faa^g a2=gf|gbef gbef|gbeg bgef|
g2bg fgaf|gedB ABdf|afec dBAF|1 EFGA Bcde:|2 EFGA BcdB||
<end>
<start>
